X:1
T:The Wolf and the Lamb
T:The Wolf and the Lamb
T:(Anonymous)
T:by IMSLP - Public Domain
T:by IMSLP - Public Domain
C:(Anonymous)
Z:by IMSLP - Public Domain
%%score 1 { 2 | 3 }
L:1/8
Q:1/4=70
M:2/4
K:D
V:1 treble nm="Voice"
V:2 treble nm="Piano"
V:3 bass 
V:1
 z | z4 | z4 | z4 | z2 z |] (D/F/) | A A (A/d/) (F/A/) | (A/G/) E z (E/G/) | %8
w: |||||A *|brook so gen\- * tly *|flo- * wing, Sped *|
 (F/A/) (F/D/) (E/G/) (E/C/) | D2 z (D/F/) | A A (A/d/) (F/A/) | (A/G/) E z (E/G/) | %12
w: soft- * ly * down * the *|lawn; A *|lamb, his thirst * al- *|lay- * ing, Stood *|
 (F/A/) (F/D/) (E/G/) (E/C/) | D2 z E | E3/2 F/ (E/D/) (C/D/) | E E z E | F3/2 F/ (E/A/) (^G/B/) | %17
w: there * at * ear- * ly *|mern; The|wa\- ter so * re- *|fre\- shing He|drank, and thought * no *|
 A2 z (D/F/) | A A (A/d/) (F/A/) | (A/G/) E z (E/G/) | (F/A/) (F/D/) (E/G/) (E/C/) | D2 z!D.C.! |] %22
w: harm; A *|wolf ftom thick- * et *|rush- * ing, Seiz'd *|rou- * ghly * on * the *|lamb.|
 z | z4 | z4 | z4 | z3 |] %27
w: |||||
V:2
 D/F/ | AA A/d/ F/A/ | A/F/ E z E/G/ | F/A/ F/D/ F/A/ G/E/ | D2 z |] z | z [A,DF][A,DF][A,DF] | %7
 z [A,DF][A,DF][A,DF] | z [A,DF] z [A,DF] | z [A,DF][A,DF][A,DF] | z [A,DF][A,DF][A,DF] | %11
 z [A,DF][A,DF][A,DF] | z [A,DF] z [A,DF] | z [A,DF][A,DF][A,DF] | z [A,CE][A,CE][A,CE] | %15
 z [A,CE][A,CE][A,CE] | z [A,DF] z [A,DE] | z [G,CE][G,CE][G,CE] | z [A,DF][A,DF][A,DF] | %19
 z [A,DF][A,DF][A,DF] | z [A,DF] z [A,DF] | [A,DF][A,DF][A,DF] |] D/F/ | AA A/d/ F/A/ | %24
 A/F/ E z E/G/ | F/A/ F/D/ F/A/ G/E/ | D2 z |] %27
V:3
 z | D,[F,A,][F,A,][F,A,] | A,,[E,G,][E,G,][E,G,] | D,[F,A,]A,,[E,G,] | [D,F,][D,F,][D,F,] |] z | %6
 D,2 z2 | A,,2 z2 | D, z A,, z | D,2 z2 | D,2 z2 | A,,2 z2 | D, z A,, z | D,2 z2 | A,,2 z2 | %15
 A,,2 z2 | D, z E, z | A,,2 z2 | D,2 z2 | A,,2 z2 | D, z A,, z | D,2 z |] z | %23
 D,[F,A,][F,A,][F,A,] | A,,[E,G,][E,G,][E,G,] | D,[F,A,]A,,[E,G,] | [D,F,][D,F,][D,F,] |] %27

